svgs/light/cross.svg

<svg xmlns="http://www.w3.org/2000/svg" viewBox="0 0 384 512"><!-- Font Awesome Pro 6.0.0-alpha2 by @fontawesome - https://fontawesome.com License - https://fontawesome.com/license (Commercial License) --><path d="M352 128H256V32C256 14.375 241.625 0 224 0H160C142.375 0 128 14.375 128 32V128H32C14.375 128 0 142.375 0 160V224C0 241.625 14.375 256 32 256H128V480C128 497.625 142.375 512 160 512H224C241.625 512 256 497.625 256 480V256H352C369.625 256 384 241.625 384 224V160C384 142.375 369.625 128 352 128ZM352 224H240C231.164 224 224 231.162 224 240V480H160V240C160 231.162 152.836 224 144 224H32V160H144C152.836 160 160 152.836 160 144V32H224V144C224 152.836 231.164 160 240 160H352V224Z"/></svg>

<svg xmlns="http://www.w3.org/2000/svg" viewBox="0 0 384 512"><!-- Font Awesome Pro 5.15.1 by @fontawesome - https://fontawesome.com License - https://fontawesome.com/license (Commercial License) --><path d="M352 128h-96V32c0-17.67-14.33-32-32-32h-64c-17.67 0-32 14.33-32 32v96H32c-17.67 0-32 14.33-32 32v64c0 17.67 14.33 32 32 32h96v224c0 17.67 14.33 32 32 32h64c17.67 0 32-14.33 32-32V256h96c17.67 0 32-14.33 32-32v-64c0-17.67-14.33-32-32-32zm0 96H224v256h-64V224H32v-64h128V32h64v128h128v64z"/></svg>
